img/rectangle-168-3.svg

<svg fill="none" height="81" viewBox="0 0 298 81" width="298" xmlns="http://www.w3.org/2000/svg"><path d="m.71967 4.62338c-1.197507-1.99962.242995-4.5413488 2.57376-4.5413488h269.05157c1.055 0 2.032.5538238 2.574 1.4586588l22.158 37.00001c.568.949.568 2.1337 0 3.0827l-22.158 37c-.542.9048-1.519 1.4586-2.574 1.4586h-269.05157c-2.33077 0-3.771266-2.5417-2.573759-4.5413l20.312029-33.9173c.5683-.949.5683-2.1337 0-3.0827z" fill="#c4c4c4"/></svg>

<svg width="298" height="81" viewBox="0 0 298 81" fill="none" xmlns="http://www.w3.org/2000/svg">
<path d="M0.71967 4.62338C-0.477837 2.62376 0.962665 0.0820312 3.29343 0.0820312H272.345C273.4 0.0820312 274.377 0.635855 274.919 1.54069L297.077 38.5407C297.645 39.4897 297.645 40.6744 297.077 41.6234L274.919 78.6234C274.377 79.5282 273.4 80.082 272.345 80.082H3.29343C0.96266 80.082 -0.477836 77.5403 0.719671 75.5407L21.0317 41.6234C21.6 40.6744 21.6 39.4897 21.0317 38.5407L0.71967 4.62338Z" fill="#C4C4C4"/>
</svg>
